dist/uber/img/icons/instagram.svg

<svg width="16" height="16" viewBox="0 0 16 16" fill="none" xmlns="https://www.w3.org/2000/svg">
<g clip-path="url(#clip0_10_42)">
<path d="M15.9843 4.70404C15.9469 3.8539 15.8094 3.26944 15.6124 2.76299C15.4093 2.22541 15.0967 1.74412 14.6872 1.34401C14.2871 0.937683 13.8026 0.621948 13.2713 0.421957C12.7619 0.22502 12.1805 0.0875415 11.3304 0.0500586C10.4739 0.00940124 10.202 0 8.02967 0C5.85737 0 5.58546 0.00940124 4.73215 0.0468842C3.88201 0.0843671 3.29754 0.221967 2.79122 0.418783C2.25352 0.621948 1.77222 0.934509 1.37212 1.34401C0.96579 1.74412 0.650176 2.22858 0.450064 2.75994C0.253126 3.26944 0.115648 3.85073 0.0781653 4.70087C0.0375079 5.55736 0.0281067 5.82926 0.0281067 8.00156C0.0281067 10.1739 0.0375079 10.4458 0.0749908 11.2991C0.112474 12.1492 0.250074 12.7337 0.447012 13.2401C0.650176 13.7777 0.96579 14.259 1.37212 14.6591C1.77222 15.0654 2.25669 15.3812 2.78804 15.5812C3.29754 15.7781 3.87883 15.9156 4.7291 15.9531C5.58229 15.9907 5.85432 16 8.02661 16C10.1989 16 10.4708 15.9907 11.3241 15.9531C12.1743 15.9156 12.7587 15.7781 13.2651 15.5812C14.3403 15.1654 15.1905 14.3153 15.6062 13.2401C15.803 12.7306 15.9406 12.1492 15.9781 11.2991C16.0156 10.4458 16.025 10.1739 16.025 8.00156C16.025 5.82926 16.0218 5.55736 15.9843 4.70404ZM14.5435 11.2366C14.5091 12.018 14.3778 12.4399 14.2684 12.7212C13.9996 13.4183 13.4464 13.9715 12.7493 14.2403C12.468 14.3497 12.043 14.481 11.2647 14.5153C10.4208 14.5529 10.1677 14.5622 8.03284 14.5622C5.89803 14.5622 5.64175 14.5529 4.80089 14.5153C4.01949 14.481 3.59753 14.3497 3.31622 14.2403C2.96935 14.1121 2.65362 13.909 2.39734 13.6433C2.13167 13.3838 1.9285 13.0713 1.8003 12.7244C1.69091 12.4431 1.55966 12.018 1.52535 11.2397C1.48774 10.3958 1.47846 10.1426 1.47846 8.00779C1.47846 5.87297 1.48774 5.6167 1.52535 4.77596C1.55966 3.99455 1.69091 3.5726 1.8003 3.29129C1.9285 2.9443 2.13167 2.62869 2.40052 2.37229C2.65985 2.10661 2.97241 1.90345 3.3194 1.77537C3.6007 1.66597 4.02583 1.53472 4.80406 1.50029C5.64798 1.46281 5.9012 1.45341 8.03589 1.45341C10.1739 1.45341 10.427 1.46281 11.2678 1.50029C12.0492 1.53472 12.4712 1.66597 12.7525 1.77537C13.0994 1.90345 13.4151 2.10661 13.6714 2.37229C13.9371 2.63174 14.1402 2.9443 14.2684 3.29129C14.3778 3.5726 14.5091 3.99761 14.5435 4.77596C14.581 5.61987 14.5904 5.87297 14.5904 8.00779C14.5904 10.1426 14.581 10.3927 14.5435 11.2366Z" fill="white"/>
<path d="M8.02967 3.8916C5.76055 3.8916 3.91949 5.73254 3.91949 8.00178C3.91949 10.271 5.76055 12.112 8.02967 12.112C10.2989 12.112 12.1398 10.271 12.1398 8.00178C12.1398 5.73254 10.2989 3.8916 8.02967 3.8916ZM8.02967 10.6679C6.55758 10.6679 5.3635 9.47399 5.3635 8.00178C5.3635 6.52957 6.55758 5.33561 8.02967 5.33561C9.50188 5.33561 10.6958 6.52957 10.6958 8.00178C10.6958 9.47399 9.50188 10.6679 8.02967 10.6679Z" fill="white"/>
<path d="M13.262 3.72858C13.262 4.25847 12.8324 4.68812 12.3024 4.68812C11.7725 4.68812 11.3428 4.25847 11.3428 3.72858C11.3428 3.19857 11.7725 2.76904 12.3024 2.76904C12.8324 2.76904 13.262 3.19857 13.262 3.72858Z" fill="white"/>
</g>
<defs>
<clipPath id="clip0_10_42">
<rect width="16" height="16" fill="white"/>
</clipPath>
</defs>
</svg>

<svg width="16" height="16" fill="none" xmlns="http://www.w3.org/2000/svg"><g clip-path="url(#clip0_10_42)" fill="#fff"><path d="M15.984 4.704c-.037-.85-.175-1.435-.372-1.941a3.904 3.904 0 00-.925-1.419 3.938 3.938 0 00-1.416-.922c-.51-.197-1.09-.334-1.94-.372C10.473.01 10.201 0 8.03 0 5.857 0 5.585.01 4.732.047c-.85.037-1.434.175-1.94.372a3.904 3.904 0 00-1.42.925A3.94 3.94 0 00.45 2.76C.253 3.27.116 3.85.078 4.7c-.04.857-.05 1.13-.05 3.302s.01 2.444.047 3.297c.037.85.175 1.435.372 1.941.203.538.519 1.019.925 1.42.4.405.885.721 1.416.921.51.197 1.09.335 1.941.372.853.038 1.125.047 3.298.047 2.172 0 2.444-.01 3.297-.047.85-.037 1.435-.175 1.941-.372a4.093 4.093 0 002.341-2.34c.197-.51.335-1.092.372-1.942.038-.853.047-1.125.047-3.297 0-2.173-.003-2.445-.04-3.298zm-1.44 6.533c-.035.781-.166 1.203-.276 1.484a2.653 2.653 0 01-1.519 1.52c-.281.109-.706.24-1.484.274-.844.038-1.097.047-3.232.047-2.135 0-2.391-.01-3.232-.047-.782-.034-1.203-.165-1.485-.275a2.462 2.462 0 01-.919-.597 2.488 2.488 0 01-.597-.919c-.11-.28-.24-.706-.275-1.484-.037-.844-.047-1.097-.047-3.232 0-2.135.01-2.391.047-3.232.035-.781.166-1.203.275-1.485.129-.347.332-.662.6-.919.26-.265.572-.469.92-.597.28-.109.706-.24 1.484-.275.844-.037 1.097-.047 3.232-.047 2.138 0 2.391.01 3.232.047.781.035 1.203.166 1.484.275.347.128.663.332.92.597.265.26.468.572.596.92.11.28.241.706.275 1.484.038.844.047 1.097.047 3.232 0 2.135-.009 2.385-.046 3.229z"/><path d="M8.03 3.892a4.111 4.111 0 000 8.22 4.111 4.111 0 000-8.22zm0 6.776a2.667 2.667 0 110-5.333 2.667 2.667 0 010 5.333zm5.232-6.939a.96.96 0 11-1.92 0 .96.96 0 011.92 0z"/></g><defs><clipPath id="clip0_10_42"><path fill="#fff" d="M0 0h16v16H0z"/></clipPath></defs></svg>
